X:1
T:Bourree
T:Bourree
T:G.F. Haendel
T:Violin-Cello Duet / originally for Oboe in Sonata in F Major, Op. 1, No. 5, HWV 363b
C:G.F. Handel
%%score 1 2
L:1/8
M:4/4
K:C
V:1 treble nm="Violin"
V:2 bass nm="Cello"
V:1
 z2 G2 | (G2 E2) (FE)DC | A2 c4 BA | G2 (FE) DEFD | (E2 C4) D2 | E^FGE FGAF | GABG ABcA | %7
 Bc d2 (D2 ^F2) | G6 G2 | (G2 E2) FEDC | A2 c4 BA | G2 (FE) DEFD | (E2 C4) D2 | E^FGE FGAF | %14
 GABG ABcA | Bc d2 (D2 ^F2) | G6 d2 | (d2 B2) (cB)AG | c2 (e4 B2) | (^G2 A2) (B2 cd) | (c2 A4) G2 | %21
 G2 FE (F2 F2) | F2 ED (E2 G2) | (AB)cG (FE)DC | (B,C)DB, G,2 G2 | (G2 E2) (FE)DC | A2 c4 BA | %27
 G2 (FE) DEFD | (E2 C4) B,2 | CDEC DEFD | EFGE FGAF | G2 c2 E2 DC | C6 d2 | (d2 B2) (cB)AG | %34
 c2 (e4 A2) | (^G2 A2) (B2 cd) | (c2 A4) G2 | G2 FE (F2 F2) | F2 ED (E2 G2) | (AB)cG (FE)DC | %40
 (B,C)DB, G,2 G2 | (G2 E2) (FE)DC | A2 c4 BA | G2 (FE) DEFD | (E2 C4) B,2 | CDEC DEFD | EFGE FGAF | %47
 G2 c2 E2 (DC) | C6 z2 |] %49
V:2
 z2 .C,2 | .B,,2 .C,2 .G,,2 .A,,2 | .F,,2 .F,2 .E,2 .F,2 | .B,,2 .C,2 .F,,2 .G,,2 | %4
 .C,,2 .C,.B,, (.C,2 .G,,2) | .C,2 .B,,2 .A,,2 .C,2 | .B,,2 .G,,2 .^F,,2 .D,,2 | %7
 .G,,2 .B,,2 .D,2 .D,,2 | .G,,2 .G,,.^F,, (.G,,2 .C,2) | .B,,2 .C,2 .G,,2 .A,,2 | %10
 .F,,2 .F,2 .E,2 .F,2 | .B,,2 .C,2 .F,,2 .G,,2 | .C,,2 .C,.B,, (.C,2 .G,,2) | %13
 .C,2 .B,,2 .A,,2 .C,2 | .B,,2 .G,,2 .^F,,2 .D,,2 | .G,,2 .B,,2 .D,2 .D,,2 | %16
 .G,,2 .G,,.^F,, .G,,2 .G,,2 | .G,,2 G,4 .F,2 | .E,2 .C,.D, (.E,2 .F,2) | .E,2 .A,,2 .D,2 .E,2 | %20
 .A,,2 .A,,.^G,, (.A,,2 .E,,2) | .G,,2 .B,,.^C, (.D,2 .D,,2) | .G,,2 .A,,.B,, (.C,2 .E,2) | %23
 .F,2 .E,2 .B,,2 .C,2 | .G,,2 .G,,.^F,, (.G,,2 .C,2) | .B,,2 .C,2 .G,,2 .A,,2 | %26
 .F,,2 .F,2 .E,2 .F,2 | .B,,2 .C,2 .F,,2 .G,,2 | .C,,2 .C,.B,, (.C,2 .G,,2) | %29
 .A,,2 .C,2 .B,,2 .G,,2 | .C,2 .B,,2 .A,,2 .G,,2 | .E,,2 .E,,.F,, .G,,2 .G,,2 | .C,2 (C,,4 .G,,2) | %33
 .G,,2 G,4 .F,2 | .E,2 .C,.D, (.E,2 .F,2) | .E,2 .A,,2 .D,2 .E,2 | .A,,2 .A,,.^G,, (.A,,2 .E,,2) | %37
 .G,,2 .B,,.^C, (.D,2 .D,,2) | .G,,2 .A,,.B,, (.C,2 .E,2) | .F,2 .E,2 .B,,2 .C,2 | %40
 .G,,2 .G,,.^F,, (.G,,2 .C,2) | .B,,2 .C,2 .G,,2 .A,,2 | .F,,2 .F,2 .E,2 .F,2 | %43
 .B,,2 .C,2 .F,,2 .G,,2 | .C,,2 .C,.B,, (.C,2 .G,,2) | .A,,2 .C,2 .B,,2 .G,,2 | %46
 .C,2 .B,,2 .A,,2 .F,,2 | .E,,2 .E,,.F,, (.G,,2 .G,,2) | C,,6 z2 |] %49

